X: 18522
M: 2/4
L: 1/8
K: Bb
V: 1 clef=treble middle=B
|:\
[dB]>[ec] [f2d2] | [ec]>[fd] [g2e2] | f2 [a2e2] | [b4d4] :|
|:\
[d2B2] [d2B2] | [f3d3] [dB] | (ge)(ec) | (cA)(AF) |\
[d2B2] [d2B2] | [f3d3] [dB] | (ge)(cA) | B4 :|
V: 2 clef=bass middle=d
|:\
b2 B2 | e2 E2 | f2 F2 | B2 b2 |\
[b4B4] | [e4E4] | f2F2 | B2 b2 :|
|:\
[d'4b4f4] | [d'4b4f4] | [e'4c'4f4] | [e'4c'4f4] |\
[d'4b4f4] | [d'4b4f4] | [e'4c'4f4] | [d'4b4] :|

